fs/food_grains_20_filled.svg

<svg viewBox="0 0 20 20" fill="none" xmlns="http://www.w3.org/2000/svg" height="1em" width="1em">
  <path d="M10.4287 2.21187C10.1841 1.99448 9.81561 1.99448 9.57105 2.21187C8.27041 3.368 7.62859 4.9694 7.64589 6.56244C7.64779 6.73729 7.74089 6.89844 7.89141 6.98743C8.53924 7.37041 9.12552 7.8505 9.62829 8.40949C9.72312 8.51491 9.85825 8.57512 10 8.57512C10.1418 8.57512 10.277 8.51491 10.3718 8.40948C10.8745 7.85057 11.4607 7.37054 12.1084 6.98758C12.2589 6.89859 12.352 6.73746 12.3539 6.56262C12.3712 4.96953 11.7294 3.36804 10.4287 2.21187ZM3.01693 12.208C2.9835 11.8403 3.25686 11.518 3.62221 11.4876C6.42049 11.2544 8.95489 12.8743 10 15.3258C11.0452 12.8743 13.5796 11.2544 16.3779 11.4876C16.7432 11.518 17.0166 11.8403 16.9831 12.208C16.685 15.4879 13.935 17.9995 10.6416 17.9996L10.1764 17.9996C10.1152 17.9996 10.0561 17.9913 10 17.9759C9.94397 17.9913 9.88485 17.9996 9.82365 17.9996L9.35849 17.9996C6.06507 17.9995 3.3151 15.4879 3.01693 12.208ZM9.99999 10.8258C8.95481 8.37419 6.42063 6.75438 3.6222 6.98758C3.25685 7.01802 2.9835 7.34027 3.01693 7.70802C3.099 8.61075 3.36712 9.45624 3.78167 10.2071C3.86898 10.3653 4.03482 10.4641 4.21548 10.4655C6.31374 10.4819 8.23872 11.3915 9.58384 12.8604C9.69194 12.9784 9.84702 13.035 10 13.0205C10.153 13.035 10.3081 12.9784 10.4161 12.8604C11.7613 11.3916 13.6862 10.4819 15.7845 10.4655C15.9651 10.4641 16.131 10.3654 16.2183 10.2072C16.6328 9.4563 16.901 8.61078 16.9831 7.70802C17.0165 7.34027 16.7431 7.01802 16.3778 6.98758C13.5794 6.75438 11.0452 8.37419 9.99999 10.8258Z" fill="#212121"/>
</svg>

<svg viewBox="0 0 20 20" fill="none" xmlns="http://www.w3.org/2000/svg" height="1em" width="1em">
  <path d="M10.429 2.212a.645.645 0 0 0-.858 0 5.716 5.716 0 0 0-1.925 4.35.5.5 0 0 0 .245.425A7.407 7.407 0 0 1 9.628 8.41a.5.5 0 0 0 .744 0 7.408 7.408 0 0 1 1.736-1.421.5.5 0 0 0 .246-.425 5.716 5.716 0 0 0-1.925-4.351Zm-7.412 9.996a.663.663 0 0 1 .605-.72A6.364 6.364 0 0 1 10 15.326a6.364 6.364 0 0 1 6.378-3.838c.365.03.639.352.605.72A6.368 6.368 0 0 1 10.642 18h-.466a.665.665 0 0 1-.176-.024.664.664 0 0 1-.176.024h-.466a6.368 6.368 0 0 1-6.341-5.792ZM10 10.826a6.364 6.364 0 0 0-6.378-3.838.663.663 0 0 0-.605.72 6.35 6.35 0 0 0 .765 2.5.5.5 0 0 0 .433.258 7.357 7.357 0 0 1 5.369 2.394.5.5 0 0 0 .416.16.5.5 0 0 0 .416-.16 7.358 7.358 0 0 1 5.368-2.394.5.5 0 0 0 .434-.259c.415-.75.683-1.596.765-2.499a.663.663 0 0 0-.605-.72A6.364 6.364 0 0 0 10 10.826Z" fill="#212121"/>
</svg>
